packages/core/assets/Icons/arrow_double_left.svg

<svg viewBox="0 0 20 20" fill="none" xmlns="http://www.w3.org/2000/svg">
<path d="M6.52087 10.0001L9.75004 13.2501C9.90282 13.4028 9.98268 13.5938 9.98962 13.823C9.99657 14.0521 9.91671 14.2501 9.75004 14.4167C9.59726 14.5695 9.40282 14.6459 9.16671 14.6459C8.9306 14.6459 8.73615 14.5695 8.58337 14.4167L4.75004 10.5834C4.66671 10.5001 4.60768 10.4098 4.57296 10.3126C4.53824 10.2153 4.52087 10.1112 4.52087 10.0001C4.52087 9.88894 4.53824 9.78477 4.57296 9.68755C4.60768 9.59033 4.66671 9.50005 4.75004 9.41672L8.58337 5.58338C8.73615 5.43061 8.92712 5.35074 9.15629 5.3438C9.38546 5.33686 9.58337 5.41672 9.75004 5.58338C9.90282 5.73616 9.97921 5.93061 9.97921 6.16672C9.97921 6.40283 9.90282 6.59727 9.75004 6.75005L6.52087 10.0001ZM12.0209 10.0001L15.25 13.2501C15.4028 13.4028 15.4827 13.5938 15.4896 13.823C15.4966 14.0521 15.4167 14.2501 15.25 14.4167C15.0973 14.5695 14.9028 14.6459 14.6667 14.6459C14.4306 14.6459 14.2362 14.5695 14.0834 14.4167L10.25 10.5834C10.1667 10.5001 10.1077 10.4098 10.073 10.3126C10.0382 10.2153 10.0209 10.1112 10.0209 10.0001C10.0209 9.88894 10.0382 9.78477 10.073 9.68755C10.1077 9.59033 10.1667 9.50005 10.25 9.41672L14.0834 5.58338C14.2362 5.43061 14.4271 5.35074 14.6563 5.3438C14.8855 5.33686 15.0834 5.41672 15.25 5.58338C15.4028 5.73616 15.4792 5.93061 15.4792 6.16672C15.4792 6.40283 15.4028 6.59727 15.25 6.75005L12.0209 10.0001Z" fill="currentColor"/>
</svg>

<svg xmlns="http://www.w3.org/2000/svg" width="20" height="20" fill="none" viewBox="0 0 20 20">
  <path fill="#201F1F" d="m6.52 10 3.23 3.25a.814.814 0 0 1 .24.573.775.775 0 0 1-.24.594.79.79 0 0 1-.583.229.79.79 0 0 1-.584-.23L4.75 10.584a.73.73 0 0 1-.177-.27.923.923 0 0 1-.052-.313c0-.111.017-.215.052-.312a.731.731 0 0 1 .177-.271l3.833-3.834a.814.814 0 0 1 .573-.24.776.776 0 0 1 .594.24.79.79 0 0 1 .23.584.79.79 0 0 1-.23.583L6.52 10Zm5.5 0 3.23 3.25a.814.814 0 0 1 .24.573.775.775 0 0 1-.24.594.79.79 0 0 1-.583.229.79.79 0 0 1-.584-.23l-3.833-3.833a.73.73 0 0 1-.177-.27.92.92 0 0 1-.052-.313.92.92 0 0 1 .052-.312.73.73 0 0 1 .177-.271l3.833-3.834a.814.814 0 0 1 .573-.24.775.775 0 0 1 .594.24.79.79 0 0 1 .23.584.79.79 0 0 1-.23.583L12.02 10Z"/>
</svg>
